src/modules/30-delegates/components/CreateDelegate/CommonProblems/images/addFile.svg

<svg fill="none" height="16" viewBox="0 0 14 16" width="14" xmlns="http://www.w3.org/2000/svg"><g fill="#0092e4"><path clip-rule="evenodd" d="m13.5502.169189h-6.5022c-1.34954 0-2.54215.824616-3.04246 2.065851-1.67323.144-3.00554 1.55446-3.00554 3.25476v9.2708c0 .1698.13785.3077.30769.3077h6.50216c1.35015 0 2.54335-.8253 3.04245-2.0659 1.6732-.144 3.0055-1.5544 3.0055-3.25475v-9.270768c0-.170462-.1372-.307693-.3076-.307693zm-5.74035 14.283111h-6.19447v-8.96249c0-1.29908.95447-2.39939 2.19877-2.62401-.00092.00524-.00123.01047-.00153.0157-.00031.00523-.00062.01046-.00154.01569-.03139.18277-.04985.36738-.04985.552v9.27081c0 .1698.13785.3077.30769.3077h6.10528c-.45728.867-1.36066 1.4246-2.36435 1.4246zm2.82585-2.0406c1.4375-.032 2.6068-1.2265 2.6068-2.66466v-8.962466h-6.1945c-1.152 0-2.17108.734766-2.53662 1.828306-.08923.27385-.13476.55508-.13476.83631v8.96251z" fill-rule="evenodd"/><path d="m4.00554 2.23504.01072.12454.07651-.00659.0287-.07122zm6.84676 10.76736-.0107-.1245-.0766.0066-.0287.0713zm-9.23692 1.4499h-.125v.125h.125zm2.19877-11.5865.1231.02173.03116-.17659-.17646.03185zm-.00153.0157.12478.00734v-.00001zm-.00154.01569-.1231-.02172-.0001.00056zm6.36312 10.13051.1105.0583.0967-.1833h-.2072zm.4615-.616v.125l.0028-.0001zm2.6068-11.627126h.125v-.125h-.125zm-8.73112 1.828306-.11855-.03963-.0003.00091zm-.13476 9.79882h-.125v.125h.125zm2.67138-12.117511h6.5022v-.2499995h-6.5022zm-2.92653 1.987581c.48163-1.19489 1.629-1.987581 2.92653-1.987581v-.2499995c-1.40155 0-2.63941.8565385-3.1584 2.1441105zm-2.99647 3.20803c0-1.63394 1.28118-2.99166 2.89126-3.13022l-.02144-.24908c-1.73638.14943-3.11982 1.61263-3.11982 3.3793zm0 9.2708v-9.2708h-.25v9.2708zm.18269.1827c-.10081 0-.18269-.0819-.18269-.1827h-.25c0 .2389.19381.4327.43269.4327zm6.50216 0h-6.50216v.25h6.50216zm2.92645-1.9875c-.4804 1.1941-1.62828 1.9875-2.92645 1.9875v.25c1.40213 0 2.64065-.8572 3.15845-2.1442zm2.9965-3.20815c0 1.63395-1.2811 2.99165-2.8912 3.13025l.0214.2491c1.7364-.1495 3.1198-1.6127 3.1198-3.37935zm0-9.270768v9.270768h.25v-9.270768zm-.1826-.182693c.1014 0 .1826.081267.1826.182693h.25c0-.239497-.1931-.4326925-.4326-.4326925zm-11.93482 14.283111h6.19447v-.25h-6.19447zm-.125-9.08749v8.96249h.25v-8.96249zm2.30157-2.74702c-1.30243.23511-2.30157 1.38607-2.30157 2.74702h.25c0-1.23722.9098-2.28687 2.09598-2.50099zm.14545.14604c.00017-.00291.00023-.0037.00027-.00419.00002-.00027-.00007.00089-.00042.00289l-.24619-.04345c-.00239.01354-.00299.02599-.00323.03008zm-.00323.03008c.00239-.01354.00299-.02598.00323-.03007l-.24957-.01469c-.00017.00292-.00023.00371-.00027.0042-.00002.00028.00007-.00089.00042-.00288zm-.04794.53028c0-.17634.01764-.35378.04804-.53085l-.24639-.04231c-.03236.18848-.05165.38026-.05165.57316zm0 9.27081v-9.27081h-.25v9.27081zm.18269.1827c-.10081 0-.18269-.0819-.18269-.1827h-.25c0 .2388.19381.4327.43269.4327zm6.10528 0h-6.10528v.25h6.10528zm-2.36435 1.6746c1.05055 0 1.99624-.5837 2.47485-1.4913l-.2211-.1167c-.43584.8265-1.29692 1.358-2.25375 1.358zm5.30765-4.83026c0 1.37016-1.1149 2.50916-2.4846 2.53966l.0056.2499c1.5054-.0335 2.729-1.2834 2.729-2.78956zm0-8.962466v8.962466h.25v-8.962466zm-6.0695.125h6.1945v-.25h-6.1945zm-2.41806 1.742936c.34852-1.04264 1.31992-1.742936 2.41806-1.742936v-.25c-1.20586 0-2.27261.769246-2.65517 1.913676zm-.12832.79668c0-.26767.04333-.53584.12861-.79758l-.2377-.07745c-.09317.28595-.14091.58023-.14091.87503zm0 8.96251v-8.96251h-.25v8.96251zm6.13408-.125h-6.25908v.25h6.25908z"/></g></svg>

<svg width="14" height="16" viewBox="0 0 14 16" fill="none" xmlns="http://www.w3.org/2000/svg">
<path fill-rule="evenodd" clip-rule="evenodd" d="M13.5502 0.169189H7.048C5.69846 0.169189 4.50585 0.993805 4.00554 2.23504C2.33231 2.37904 1 3.7895 1 5.4898V14.7606C1 14.9304 1.13785 15.0683 1.30769 15.0683H7.80985C9.16 15.0683 10.3532 14.243 10.8523 13.0024C12.5255 12.8584 13.8578 11.448 13.8578 9.74765V0.476882C13.8578 0.30642 13.7206 0.169189 13.5502 0.169189ZM7.80985 14.4523H1.61538V5.48981C1.61538 4.19073 2.56985 3.09042 3.81415 2.8658C3.81323 2.87104 3.81292 2.87627 3.81262 2.8815C3.81231 2.88673 3.812 2.89196 3.81108 2.89719C3.77969 3.07996 3.76123 3.26457 3.76123 3.44919V12.72C3.76123 12.8898 3.89908 13.0277 4.06892 13.0277H10.1742C9.71692 13.8947 8.81354 14.4523 7.80985 14.4523ZM10.6357 12.4117C12.0732 12.3797 13.2425 11.1852 13.2425 9.74704V0.784574H7.048C5.896 0.784574 4.87692 1.51934 4.51138 2.61288C4.42215 2.88673 4.37662 3.16796 4.37662 3.44919V12.4117H10.6357Z" fill="#0092E4"/>
<path d="M4.00554 2.23504L4.01626 2.35958L4.09277 2.35299L4.12147 2.28177L4.00554 2.23504ZM10.8523 13.0024L10.8416 12.8779L10.765 12.8845L10.7363 12.9558L10.8523 13.0024ZM1.61538 14.4523H1.49038V14.5773H1.61538V14.4523ZM3.81415 2.8658L3.93725 2.88753L3.96841 2.71094L3.79195 2.74279L3.81415 2.8658ZM3.81262 2.8815L3.9374 2.88884L3.9374 2.88883L3.81262 2.8815ZM3.81108 2.89719L3.68798 2.87547L3.68788 2.87603L3.81108 2.89719ZM10.1742 13.0277L10.2847 13.086L10.3814 12.9027H10.1742V13.0277ZM10.6357 12.4117V12.5367L10.6385 12.5366L10.6357 12.4117ZM13.2425 0.784574H13.3675V0.659574H13.2425V0.784574ZM4.51138 2.61288L4.39283 2.57325L4.39253 2.57416L4.51138 2.61288ZM4.37662 12.4117H4.25162V12.5367H4.37662V12.4117ZM7.048 0.294189H13.5502V0.0441895H7.048V0.294189ZM4.12147 2.28177C4.6031 1.08688 5.75047 0.294189 7.048 0.294189V0.0441895C5.64645 0.0441895 4.40859 0.900728 3.8896 2.1883L4.12147 2.28177ZM1.125 5.4898C1.125 3.85586 2.40618 2.49814 4.01626 2.35958L3.99482 2.1105C2.25844 2.25993 0.875 3.72313 0.875 5.4898H1.125ZM1.125 14.7606V5.4898H0.875V14.7606H1.125ZM1.30769 14.9433C1.20688 14.9433 1.125 14.8614 1.125 14.7606H0.875C0.875 14.9995 1.06881 15.1933 1.30769 15.1933V14.9433ZM7.80985 14.9433H1.30769V15.1933H7.80985V14.9433ZM10.7363 12.9558C10.2559 14.1499 9.10802 14.9433 7.80985 14.9433V15.1933C9.21198 15.1933 10.4505 14.3361 10.9683 13.0491L10.7363 12.9558ZM13.7328 9.74765C13.7328 11.3816 12.4517 12.7393 10.8416 12.8779L10.863 13.127C12.5994 12.9775 13.9828 11.5143 13.9828 9.74765H13.7328ZM13.7328 0.476882V9.74765H13.9828V0.476882H13.7328ZM13.5502 0.294189C13.6516 0.294189 13.7328 0.375456 13.7328 0.476882H13.9828C13.9828 0.237385 13.7897 0.0441895 13.5502 0.0441895V0.294189ZM1.61538 14.5773H7.80985V14.3273H1.61538V14.5773ZM1.49038 5.48981V14.4523H1.74038V5.48981H1.49038ZM3.79195 2.74279C2.48952 2.9779 1.49038 4.12886 1.49038 5.48981H1.74038C1.74038 4.25259 2.65018 3.20294 3.83636 2.98882L3.79195 2.74279ZM3.9374 2.88883C3.93757 2.88592 3.93763 2.88513 3.93767 2.88464C3.93769 2.88437 3.9376 2.88553 3.93725 2.88753L3.69106 2.84408C3.68867 2.85762 3.68807 2.87007 3.68783 2.87416L3.9374 2.88883ZM3.93417 2.91891C3.93656 2.90537 3.93716 2.89293 3.9374 2.88884L3.68783 2.87415C3.68766 2.87707 3.6876 2.87786 3.68756 2.87835C3.68754 2.87863 3.68763 2.87746 3.68798 2.87547L3.93417 2.91891ZM3.88623 3.44919C3.88623 3.27285 3.90387 3.09541 3.93427 2.91834L3.68788 2.87603C3.65552 3.06451 3.63623 3.25629 3.63623 3.44919H3.88623ZM3.88623 12.72V3.44919H3.63623V12.72H3.88623ZM4.06892 12.9027C3.96811 12.9027 3.88623 12.8208 3.88623 12.72H3.63623C3.63623 12.9588 3.83004 13.1527 4.06892 13.1527V12.9027ZM10.1742 12.9027H4.06892V13.1527H10.1742V12.9027ZM7.80985 14.5773C8.8604 14.5773 9.80609 13.9936 10.2847 13.086L10.0636 12.9693C9.62776 13.7958 8.76668 14.3273 7.80985 14.3273V14.5773ZM13.1175 9.74704C13.1175 11.1172 12.0026 12.2562 10.6329 12.2867L10.6385 12.5366C12.1439 12.5031 13.3675 11.2532 13.3675 9.74704H13.1175ZM13.1175 0.784574V9.74704H13.3675V0.784574H13.1175ZM7.048 0.909574H13.2425V0.659574H7.048V0.909574ZM4.62994 2.65251C4.97846 1.60987 5.94986 0.909574 7.048 0.909574V0.659574C5.84214 0.659574 4.77539 1.42882 4.39283 2.57325L4.62994 2.65251ZM4.50162 3.44919C4.50162 3.18152 4.54495 2.91335 4.63023 2.65161L4.39253 2.57416C4.29936 2.86011 4.25162 3.15439 4.25162 3.44919H4.50162ZM4.50162 12.4117V3.44919H4.25162V12.4117H4.50162ZM10.6357 12.2867H4.37662V12.5367H10.6357V12.2867Z" fill="#0092E4"/>
</svg>
